icon-themes/breeze_svg/cmd/sc_setminimalrowheight.svg

<svg viewBox="0 0 16 16" xmlns="http://www.w3.org/2000/svg">/&gt;<path d="m2 6v1 3h5 2 5v-3-1h-5-2zm1 1h3v2h-3zm4 0h2v2h-2zm3 0h3v2h-3z" fill="#4d4d4d"/></svg>

<svg xmlns="http://www.w3.org/2000/svg" viewBox="0 0 16 16">
     />
 <path 
     style="fill:#4d4d4d" 
     d="M 2 6 L 2 7 L 2 10 L 7 10 L 9 10 L 14 10 L 14 7 L 14 6 L 9 6 L 7 6 L 2 6 z M 3 7 L 6 7 L 6 9 L 3 9 L 3 7 z M 7 7 L 9 7 L 9 9 L 7 9 L 7 7 z M 10 7 L 13 7 L 13 9 L 10 9 L 10 7 z "
     />
 </svg>
